!!!COM: Music21
!!!OTL: Jota de Arbo
!!!OMV: pezas_jotas_jota-de-arbo-1_jota-de-arbo-partitura.musicxml
**kern
*part1
*staff1
*I"Bagpipes
*I'Bag
*clefG^2
*k[]
*M3/4
=1
!LO:TX:a:t=Prestissimo
*MM220
!LO:TX:a:t=[quarter]=220
4r
8ccL
8ddJ
8eeL
8ggJ
=||
4ccc
4gg
4ee
=
4cc
8ccL
8eeJ
8ccL
8eeJ
=
4ccc
4gg
4ff
=
4dd
8bL
8ddJ
8bL
8ddJ
=
4b
4gg
4ff
=
4dd
8bL
8ddJ
8bL
8ddJ
=
4b
8ggL
8ffJ
8eeL
8ddJ
!!linebreak:original
=
4ee
8ccL
8ddJ
8eeL
8ggJ
!!linebreak:original
=
4ccc
4gg
4ee
=
4cc
8ccL
8eeJ
8ccL
8eeJ
=
4ccc
4gg
4ff
=
4dd
8bL
8ddJ
8bL
8ddJ
=
4b
4gg
4ff
=
4dd
8bL
8ddJ
8bL
8ddJ
=
4b
8ggL
8ffJ
8eeL
8ddJ
=
[2.cc
=
4cc]
8ccL
8ddJ
8eeL
8ggJ
=||
4ccc
4gg
4ee
!!linebreak:original
=
4cc
8ccL
8eeJ
8ccL
8eeJ
=
4ccc
4gg
4ff
=
4dd
8bL
8ddJ
8bL
8ddJ
=
4b
4gg
4ff
=
4dd
8bL
8ddJ
8bL
8ddJ
=
4b
8ggL
8ffJ
8eeL
8ddJ
=
4ee
8ccL
8ddJ
8eeL
8ggJ
!!linebreak:original
=
4ccc
4gg
4ee
=
4cc
8ccL
8eeJ
8ccL
8eeJ
=
4ccc
4gg
4ff
=
4dd
8bL
8ddJ
8bL
8ddJ
=
4b
4gg
4ff
=
4dd
8bL
8ddJ
8bL
8ddJ
!!linebreak:original
=
4b
8ggL
8ffJ
8eeL
8ddJ
=||
[2.cc
=
4cc]
4ee
4ff
=||
2gg
4gg
=
4ff
4ee
4ff
=
4gg
8ffL
8eeJ
[4dd
=
4dd]
4ff
4gg
=
2aa
4aa
=
4gg
4ff
4gg
=
4aa
8ggL
8ffJ
[4ee
=
4ee]
4ee
4ff
!!pagebreak:original
=||
2gg
4gg
=
4ff
4ee
4ff
=
4gg
8ffL
8eeJ
[4dd
=
4dd]
4ff
4gg
=
2aa
4aa
=
4gg
4ff
4gg
=
4aa
8ggL
8ffJ
[4ee
=
4ee]
4ee
4ff
=||
2gg
4gg
!!linebreak:original
=
4ff
4ee
4ff
=
4gg
8ffL
8eeJ
[4dd
=
4dd]
4ff
4gg
=
2aa
4aa
=
4gg
4ff
4gg
=
4aa
8ggL
8ffJ
[4ee
=
2.ee_
=
4ee]
8ccL
8ddJ
8eeL
8ggJ
=||
4cc
8ccL
8eeJ
8ggL
8eeJ
=
8ccc
8r
2r
==
*-
!!!system-decoration: s1,s2
